!!!COM: Beethoven
!!!OTL: Acht Variationen uber "Une fievre brulante" aus "Richard Coeur de Lion" von A.E.M. Gretry
!!!Variation: Variation 8 g
**function	**harm	**kern	**kern
*	*	*clefF4	*clefG2
*	*	*k[]	*k[]
*M2/4	*M2/4	*M2/4	*M2/4
*C:	*C:	*C:	*C:
=339	=339	=339	=339
2T	2I	16CLL	16eLL
.	.	16E	16g
.	.	16G	16cc
.	.	16cJJ	16eeJJ
.	.	16CLL	16cLL
.	.	16E	16e
.	.	16G	16g
.	.	16cJJ	16ccJJ
=340	=340	=340	=340
4T	4IVc	16CLL	16fLL
.	.	16F	16a
.	.	16A	16cc
.	.	16cJJ	16ffJJ
4T	4I	16CLL	16eLL
.	.	16E	16g
.	.	16G	16cc
.	.	16cJJ	16eeJJ
=341	=341	=341	=341
4T	4I	16CLL	16eLL
.	.	16E	16g
.	.	16G	16cc
.	.	16cJJ	16eeJJ
4T	4V7	16CLL	16dLL
.	.	16F	16f
.	.	16G	16g
.	.	16BJJ	16ddJJ
=342	=342	=342	=342
2T	2I	16CLL	16cLL
.	.	16E	16e
.	.	16G	16g
.	.	16cJJ	16ccJJ
.	.	16CLL	16cLL
.	.	16E	16e
.	.	16G	16g
.	.	16cJJ	16ccJJ
=343	=343	=343	=343
4T	4Vb	16BBLL	16dLL
.	.	16D	16g
.	.	16G	16b
.	.	16BJJ	16ddJJ
4T	4I	16CLL	16eLL
.	.	16E	16g
.	.	16G	16cc
.	.	16cJJ	16eeJJ
=344	=344	=344	=344
4P	4IVb	16AALL	16fLL
.	.	16C	16a
.	.	16F	16cc
.	.	16AJJ	16ffJJ
4P	4iib	16FFLL	16fLL
.	.	16C	16a
.	.	16D	16dd
.	.	16FJJ	16ffJJ
=345	=345	=345	=345
4D	4Cc	16GGLL	16dLL
.	.	16C	16g
.	.	16D	16cc
.	.	16GJJ	16ddJJ
4D	4V	16GGLL	16dLL
.	.	16BB	16g
.	.	16D	16b
.	.	16GJJ	16ddJJ
=346	=346	=346	=346
2T	2I	16CLL	16eLL
.	.	16E	16g
.	.	16G	16cc
.	.	16cJJ	16eeJJ
.	.	16CLL	16cLL
.	.	16E	16e
.	.	16G	16g
.	.	16cJJ	16ccJJ
=347	=347	=347	=347
4T	4Vb	16BBLL	16dLL
.	.	16D	16g
.	.	16G	16b
.	.	16BJJ	16ddJJ
4T	4I	16CLL	16eLL
.	.	16E	16g
.	.	16G	16cc
.	.	16cJJ	16eeJJ
=348	=348	=348	=348
4P	4IVb	16AALL	16fLL
.	.	16C	16a
.	.	16F	16cc
.	.	16AJJ	16ffJJ
4P	4iib	16FFLL	16fLL
.	.	16C	16a
.	.	16D	16dd
.	.	16FJJ	16ffJJ
=349	=349	=349	=349
4D	4Cc	16GGLL	16dLL
.	.	16C	16g
.	.	16D	16cc
.	.	16GJJ	16ddJJ
4D	4V	16GGLL	16dLL
.	.	16BB	16g
.	.	16D	16b
.	.	16GJJ	16ddJJ
=350	=350	=350	=350
2T	2I	16CCLL	8cc'L
.	.	16EE	.
.	.	16GG	(16eL
.	.	16CJJ	16gJJ
.	.	16CCLL	16ccLL
.	.	16EE	16ee
.	.	16GG	16dd
.	.	16CJJ	16ccJJ)
=351	=351	=351	=351
2T	2V7	16CCLL	8r
.	.	16DD	.
.	.	16FF	(16bLL
.	.	16BBJJ	16ddJJ
.	.	16CCLL	16ffLL
.	.	16DD	16aa
.	.	16FF	16gg
.	.	16BBJJ	16ffJJ)
=352	=352	=352	=352
2T	2I	16CCLL	8r
.	.	16EE	.
.	.	16GG	(16eeLL
.	.	16CJJ	16ggJJ
.	.	16CCLL	16cccLL
.	.	16EE	16eee
.	.	16GG	16ddd
.	.	16CJJ	16cccJJ
=353	=353	=353	=353
2T	2V7	16CCLL	16bbLL
.	.	16FF	16aa
.	.	16GG	16gg
.	.	16DJJ	16ffJJ
.	.	16CCLL	16eeLL
.	.	16FF	16dd
.	.	16GG	16cc
.	.	16DJJ	16bJJ)
=354	=354	=354	=354
2T	2I	16CCLL	8cc'L
.	.	16EE	.
.	.	16GG	(16eL
.	.	16CJJ	16gJJ
.	.	16CCLL	16ccLL
.	.	16EE	16ee
.	.	16GG	16dd
.	.	16CJJ	16ccJJ)
=355	=355	=355	=355
2T	2V7	16CCLL	8r
.	.	16DD	.
.	.	16FF	(16bLL
.	.	16BBJJ	16ddJJ
.	.	16CCLL	16ffLL
.	.	16DD	16aa
.	.	16FF	16gg
.	.	16BBJJ	16ffJJ)
=356	=356	=356	=356
2T	2I	16CCLL	8r
.	.	16EE	.
.	.	16GG	(16eeLL
.	.	16CJJ	16ggJJ
.	.	16CCLL	16cccLL
.	.	16EE	16eee
.	.	16GG	16ddd
.	.	16CJJ	16cccJJ
=357	=357	=357	=357
2T	2V7	16CCLL	16bbLL
.	.	16FF	16aa
.	.	16GG	16gg
.	.	16DJJ	16ffJJ
.	.	16CCLL	16eeLL
.	.	16FF	16dd
.	.	16GG	16cc
.	.	16DJJ	16bJJ)
=358	=358	=358	=358
2T	2I	16CCLL	8cc'L
.	.	16EE	.
.	.	16GG	(16eL
.	.	16CJJ	16gJJ
.	.	16CCLL	16ccLL
.	.	16EE	16ee
.	.	16GG	16dd
.	.	16CJJ	16ccJJ
=359	=359	=359	=359
2T	2V7	16CCLL	16bLL
.	.	16FF	16a
.	.	16GG	16g
.	.	16DJJ	16fJJ
.	.	16CCLL	16eLL
.	.	16FF	16d
.	.	16GG	16c
.	.	16DJJ	16BJJ)
=360	=360	=360	=360
2T	2I	4CC 4EE 4GG 4C	16cLL
.	.	.	16G
.	.	.	16E
.	.	.	16GJJ
.	.	4r	16cLL
.	.	.	16e
.	.	.	16g
.	.	.	16eJJ
=361	=361	=361	=361
2T	2I	4CC 4EE 4GG 4C	16cLL
.	.	.	16G
.	.	.	16E
.	.	.	16GJJ
.	.	4r	16cLL
.	.	.	16e
.	.	.	16g
.	.	.	16eJJ
=362	=362	=362	=362
2T	2I	4CC 4EE 4GG 4C	4c
.	.	4r	4r
==	==	==	==
*-	*-	*-	*-
